images/digital-icon.svg

<svg width="172" height="8" viewBox="0 0 172 8" fill="none" xmlns="http://www.w3.org/2000/svg">
<path d="M0.420271 7.05059V1.20458L0.304688 0.283962H5.66796C6.29214 0.283962 6.76994 0.360672 7.10129 0.514111C7.44035 0.667549 7.67537 0.897707 7.80637 1.20458C7.93737 1.50379 8.00285 1.87971 8.00285 2.33235V4.99067C8.00285 5.45099 7.93737 5.83459 7.80637 6.14147C7.68308 6.44067 7.45187 6.667 7.11281 6.82044C6.78146 6.97388 6.29985 7.05059 5.66796 7.05059H0.420271ZM1.94608 5.94583H5.57549C6.16884 5.94583 6.4694 5.67348 6.47711 5.12878V2.19427C6.47711 1.97179 6.41163 1.78381 6.28063 1.63038C6.14963 1.46927 5.91454 1.38873 5.57549 1.38873H1.94608V5.94583ZM13.8362 7.05059V0.283962H15.362V7.05059H13.8362ZM23.43 7.05059C22.8829 7.05059 22.4552 6.97388 22.147 6.82044C21.8388 6.667 21.623 6.43684 21.4997 6.12997C21.3764 5.82309 21.3147 5.44331 21.3147 4.99067V2.42442C21.3147 1.68792 21.4804 1.14706 21.8118 0.801825C22.1431 0.448917 22.6825 0.272461 23.43 0.272461H26.9092C27.4409 0.272461 27.8455 0.303157 28.1229 0.364532C28.408 0.418235 28.5506 0.475768 28.5506 0.537143L28.3194 1.4923C28.1884 1.46928 27.7992 1.44625 27.1519 1.42323C26.5124 1.39254 25.5799 1.37722 24.3547 1.37722H23.7652C23.1487 1.37722 22.8405 1.64957 22.8405 2.19427V5.12878C22.8405 5.38962 22.906 5.59292 23.037 5.73868C23.1757 5.87678 23.4185 5.94583 23.7652 5.94583H24.2391C24.9789 5.94583 25.603 5.942 26.1116 5.93432C26.6202 5.91898 27.0402 5.90746 27.3716 5.89979V4.33473L26.678 4.34623L25.1639 4.46131V3.33354H28.8857V6.56726L29.0013 6.80891C29.0013 6.87029 28.8395 6.92785 28.5159 6.98155C28.1922 7.02758 27.6451 7.05059 26.8746 7.05059H23.43ZM34.8376 7.05059V0.283962H36.3633V7.05059H34.8376ZM44.7551 7.05059L44.7435 1.37722H41.7382V0.272461H49.2977V1.37722H46.2808V7.05059H44.7551ZM52.3627 7.05059L55.7494 0.283962H58.0264L61.4016 7.05059H59.6216L58.9396 5.5891H54.8016L54.0502 7.05059H52.3627ZM55.2177 4.46131H58.5119L56.9284 1.31966H56.8128L55.2177 4.46131ZM66.5482 7.05059L66.6638 6.12997V0.283962H68.1895V5.94583H72.9749L73.4372 6.92401C73.4372 6.9547 73.3332 6.98537 73.1252 7.01606C72.9171 7.03907 72.5588 7.05059 72.0502 7.05059H66.5482ZM87.4494 7.05059C86.9023 7.05059 86.4746 6.97388 86.1664 6.82044C85.8582 6.667 85.6424 6.43684 85.5191 6.12997C85.3958 5.82309 85.3341 5.44331 85.3341 4.99067V2.42442C85.3341 1.68792 85.4998 1.14706 85.8312 0.801825C86.1625 0.448917 86.7019 0.272461 87.4494 0.272461H90.9286C91.4603 0.272461 91.8649 0.303157 92.1423 0.364532C92.4274 0.418235 92.5699 0.475768 92.5699 0.537143L92.3387 1.4923C92.2077 1.46928 91.8186 1.44625 91.1713 1.42323C90.5317 1.39254 89.5993 1.37722 88.3741 1.37722H87.7846C87.1681 1.37722 86.8599 1.64957 86.8599 2.19427V5.12878C86.8599 5.38962 86.9254 5.59292 87.0564 5.73868C87.1951 5.87678 87.4378 5.94583 87.7846 5.94583H88.2585C89.5377 5.94583 90.5279 5.93434 91.2291 5.91132C91.9381 5.88063 92.3773 5.84994 92.5468 5.81925L93.0207 6.57876C93.0207 6.61712 92.9552 6.67465 92.8242 6.75137C92.701 6.82809 92.4697 6.89714 92.1307 6.95852C91.7916 7.01989 91.3023 7.05059 90.6627 7.05059H87.4494ZM100.394 7.05059C99.8549 7.05059 99.4311 6.97388 99.1228 6.82044C98.8146 6.667 98.595 6.43684 98.464 6.12997C98.3407 5.82309 98.279 5.44331 98.279 4.99067V2.33235C98.279 1.88738 98.3407 1.51529 98.464 1.21609C98.5873 0.909209 98.803 0.67908 99.1112 0.525641C99.4195 0.364531 99.8472 0.283962 100.394 0.283962H103.769C104.309 0.283962 104.729 0.364531 105.029 0.525641C105.338 0.67908 105.553 0.909209 105.677 1.21609C105.808 1.51529 105.873 1.88738 105.873 2.33235V4.99067C105.873 5.6658 105.723 6.17982 105.422 6.53273C105.122 6.87796 104.571 7.05059 103.769 7.05059H100.394ZM100.729 5.94583H103.446C103.731 5.94583 103.951 5.87295 104.105 5.72718C104.266 5.58141 104.347 5.38195 104.347 5.12878V2.19427C104.347 1.97179 104.266 1.78381 104.105 1.63038C103.943 1.46927 103.723 1.38873 103.446 1.38873H100.729C100.452 1.38873 100.229 1.46161 100.059 1.60737C99.8895 1.75314 99.8048 1.94877 99.8048 2.19427V5.12878C99.8048 5.38962 99.8857 5.59292 100.047 5.73868C100.217 5.87678 100.444 5.94583 100.729 5.94583ZM111.94 7.05059V1.20458L111.824 0.283962H113.488L117.419 4.38077L117.869 5.0022H117.996V0.283962H119.522V7.05059H118.054L114.032 2.88475L113.581 2.34388H113.465V7.05059H111.94ZM127.917 7.05059L127.905 1.37722H124.9V0.272461H132.459V1.37722H129.443V7.05059H127.917ZM137.838 7.05059V0.283962H145.028V1.38873H139.364V2.97682H143.687V4.11609H139.364V5.94583H145.074L145.536 6.92401C145.536 6.9547 145.432 6.98537 145.224 7.01606C145.016 7.03907 144.658 7.05059 144.149 7.05059H137.838ZM151.022 7.05059V1.20458L150.906 0.283962H152.571L156.501 4.38077L156.952 5.0022H157.079V0.283962H158.604V7.05059H157.136L153.114 2.88475L152.663 2.34388H152.548V7.05059H151.022ZM166.998 7.05059L166.986 1.37722H163.981V0.272461H171.541V1.37722H168.524V7.05059H166.998Z" fill="white"/>
</svg>

<svg width="172" height="8" fill="none" xmlns="http://www.w3.org/2000/svg"><path d="M.42 7.05V1.206L.305.284h5.363c.624 0 1.102.077 1.433.23.34.154.574.384.705.69.131.3.197.676.197 1.128v2.659c0 .46-.066.844-.197 1.15-.123.3-.354.526-.693.68-.332.153-.813.23-1.445.23H.42zm1.526-1.104h3.63c.593 0 .893-.273.901-.817V2.194a.839.839 0 00-.196-.564c-.131-.16-.366-.241-.706-.241H1.946v4.557zm11.89 1.105V.284h1.526v6.767h-1.526zm9.594 0c-.547 0-.975-.077-1.283-.23a1.29 1.29 0 01-.647-.691c-.124-.307-.185-.687-.185-1.14V2.425c0-.736.165-1.277.497-1.622.331-.353.87-.53 1.618-.53h3.48c.53 0 .936.031 1.213.093.285.053.428.11.428.172l-.232.955c-.13-.023-.52-.046-1.167-.069-.64-.03-1.572-.046-2.797-.046h-.59c-.616 0-.925.273-.925.817V5.13c0 .26.066.464.197.61.139.138.382.207.728.207h.474c.74 0 1.364-.004 1.873-.012.508-.015.928-.027 1.26-.034V4.335l-.694.011-1.514.115V3.334h3.722v3.233L29 6.81c0 .061-.162.119-.485.173-.324.046-.87.069-1.641.069H23.43zm11.408 0V.284h1.525v6.767h-1.525zm9.917 0l-.012-5.674h-3.005V.272h7.56v1.105H46.28v5.674h-1.526zm7.608 0L55.749.284h2.277l3.376 6.767h-1.78l-.682-1.462h-4.138l-.752 1.462h-1.687zm2.855-2.59h3.294L56.928 1.32h-.115l-1.595 3.14zm11.33 2.59l.116-.921V.284h1.525v5.662h4.786l.462.978c0 .03-.104.061-.312.092-.208.023-.566.035-1.075.035h-5.502zm20.901 0c-.547 0-.974-.077-1.283-.23a1.29 1.29 0 01-.647-.691c-.123-.307-.185-.687-.185-1.14V2.425c0-.736.166-1.277.497-1.622.331-.353.87-.53 1.618-.53h3.48c.531 0 .936.031 1.213.093.285.053.428.11.428.172l-.231.955c-.131-.023-.52-.046-1.168-.069-.64-.03-1.572-.046-2.797-.046h-.59c-.616 0-.924.273-.924.817V5.13c0 .26.065.464.196.61.14.138.382.207.729.207h.474c1.279 0 2.269-.012 2.97-.035.71-.03 1.148-.061 1.318-.092l.474.76c0 .038-.066.096-.197.172-.123.077-.354.146-.693.208-.34.06-.829.092-1.468.092h-3.214zm12.945 0c-.54 0-.963-.077-1.271-.23a1.34 1.34 0 01-.659-.691c-.123-.307-.185-.687-.185-1.14V2.333c0-.445.062-.817.185-1.116a1.29 1.29 0 01.647-.69c.308-.161.736-.242 1.283-.242h3.375c.54 0 .96.08 1.26.242.309.153.524.383.648.69.131.3.196.671.196 1.116v2.659c0 .675-.15 1.189-.451 1.542-.3.345-.851.518-1.653.518h-3.375zm.335-1.105h2.717c.285 0 .505-.073.659-.219.161-.146.242-.345.242-.598V2.194a.75.75 0 00-.242-.564c-.162-.16-.382-.241-.659-.241h-2.717c-.277 0-.5.073-.67.218a.735.735 0 00-.254.587V5.13c0 .26.08.464.242.61.17.138.397.207.682.207zM111.94 7.05V1.205l-.116-.921h1.664l3.931 4.097.45.621h.127V.284h1.526v6.767h-1.468l-4.022-4.166-.451-.541h-.116V7.05h-1.525zm15.977 0l-.012-5.674H124.9V.272h7.559v1.105h-3.016v5.674h-1.526zm9.921 0V.284h7.19v1.105h-5.664v1.588h4.323v1.14h-4.323v1.829h5.71l.462.978c0 .03-.104.061-.312.092-.208.023-.566.035-1.075.035h-6.311zm13.184 0V1.205l-.116-.921h1.665l3.93 4.097.451.621h.127V.284h1.525v6.767h-1.468l-4.022-4.166-.451-.541h-.115V7.05h-1.526zm15.976 0l-.012-5.674h-3.005V.272h7.56v1.105h-3.017v5.674h-1.526z" fill="#fff"/></svg>
